Breeze Round Dark/actions/24/go-next-use.svg

<svg xmlns="http://www.w3.org/2000/svg" viewBox="0 0 24 24" width="24" height="24">
  <defs id="defs3051">
    <style type="text/css" id="current-color-scheme">.ColorScheme-Text {color:#fcfcfc;}</style>
  </defs>
  <g transform="translate(1,1)">
    <path style="fill:currentColor;fill-opacity:1;stroke:none" d="m 3,6 v 4 H 4 19 V 9 6 C 19,6 19,3 16,3 13,3 9,3 6,3 3,3 3,6 3,6 Z m 1,0 c 0,0 0,-2 2,-2 2,0 8,0 10,0 2,0 2,2 2,2 V 9 H 4 Z m -1,5 v 8 l 5,-4 z m 8,1 v 3 h 2 v -3 z m 4,0 v 3 h 4 v -3 z" class="ColorScheme-Text"/>
  </g>
</svg>

<svg xmlns="http://www.w3.org/2000/svg" viewBox="0 0 24 24">
  <defs id="defs3051">
    <style type="text/css" id="current-color-scheme">
      .ColorScheme-Text {
        color:#eff0f1;
      }
      </style>
  </defs><g transform="translate(1,1)">
 <path 
    style="fill:currentColor;fill-opacity:1;stroke:none" 
    d="M 3 3 L 3 4 L 3 10 L 4 10 L 19 10 L 19 9 L 19 3 L 18 3 L 4 3 L 3 3 z M 4 4 L 18 4 L 18 9 L 4 9 L 4 4 z M 3 11 L 3 19 L 8 15 L 3 11 z M 11 12 L 11 15 L 13 15 L 13 12 L 11 12 z M 15 12 L 15 15 L 19 15 L 19 12 L 15 12 z "
    class="ColorScheme-Text"
    />  
</g></svg>
